images/aREN.svg

<svg height="250" viewBox="0 0 250 250" width="250" xmlns="http://www.w3.org/2000/svg" xmlns:xlink="http://www.w3.org/1999/xlink"><linearGradient id="a" gradientUnits="userSpaceOnUse" x1="210.75" x2="51.5" y1="33.75" y2="221.5"><stop offset="0" stop-color="#b6509e"/><stop offset="1" stop-color="#2ebac6"/></linearGradient><path d="m250 125c0 69.035156-55.964844 125-125 125s-125-55.964844-125-125 55.964844-125 125-125 125 55.964844 125 125zm0 0" fill="#fff"/><path d="m125 250c-8.460938.003906-16.902344-.847656-25.195312-2.539062-15.988282-3.273438-31.175782-9.667969-44.699219-18.808594-20.09375-13.566406-35.828125-32.671875-45.285157-54.996094-3.195312-7.5625-5.632812-15.417969-7.28125-23.460938-3.386718-16.625-3.386718-33.761718 0-50.382812 3.273438-15.988281 9.664063-31.179688 18.808594-44.699219 13.566406-20.097656 32.671875-35.828125 54.996094-45.289062 7.5625-3.199219 15.417969-5.636719 23.460938-7.285157 16.625-3.386718 33.761718-3.386718 50.382812 0 15.988281 3.273438 31.179688 9.664063 44.699219 18.808594 20.097656 13.566406 35.828125 32.671875 45.289062 54.996094 3.195313 7.5625 5.636719 15.417969 7.285157 23.460938 3.386718 16.625 3.386718 33.761718 0 50.382812-3.273438 15.992188-9.664063 31.179688-18.808594 44.699219-13.566406 20.09375-32.671875 35.828125-54.996094 45.285156-7.5625 3.199219-15.417969 5.640625-23.460938 7.289063-8.292968 1.691406-16.734374 2.542968-25.195312 2.539062zm0-236.609375c-7.554688 0-15.089844.757813-22.492188 2.269531-14.277343 2.921875-27.839843 8.628906-39.910156 16.792969-17.941406 12.113281-31.984375 29.171875-40.429687 49.105469-2.855469 6.75-5.03125 13.769531-6.503907 20.949218-3.023437 14.839844-3.023437 30.140626 0 44.984376 2.925782 14.277343 8.632813 27.835937 16.796876 39.90625 12.113281 17.945312 29.171874 31.992187 49.105468 40.4375 6.75 2.855468 13.769532 5.03125 20.949219 6.503906 14.84375 3.023437 30.144531 3.023437 44.984375 0 14.277344-2.925782 27.839844-8.632813 39.910156-16.796875 17.9375-12.113281 31.976563-29.171875 40.421875-49.101563 2.855469-6.75 5.03125-13.769531 6.503907-20.949218 3.023437-14.84375 3.023437-30.144532 0-44.984376-2.925782-14.277343-8.632813-27.835937-16.796876-39.90625-12.113281-17.941406-29.167968-31.988281-49.097656-40.433593-6.75-2.855469-13.769531-5.03125-20.949218-6.503907-7.402344-1.511718-14.9375-2.273437-22.492188-2.273437zm0 0" fill="url(#a)"/><path d="m220.703125 125c0 52.855469-42.847656 95.703125-95.703125 95.703125s-95.703125-42.847656-95.703125-95.703125 42.847656-95.703125 95.703125-95.703125 95.703125 42.847656 95.703125 95.703125zm0 0" fill="#0e3158"/><g fill="#fff"><path d="m86.28125 88.148438 9.34375-5.371094 1.253906 2.167968 34.421875-19.863281-2.515625-1.445312-2.527344-1.464844-1.253906-.726563-56.082031 32.398438v1.445312l16.109375-9.3125zm0 0"/><path d="m86.28125 108.542969 26.976562-15.585938 1.265626 2.1875 34.421874-19.863281-2.515624-1.464844-2.527344-1.445312-1.265625-.726563-73.714844 42.5625v1.445313l16.109375-9.3125zm0 0"/><path d="m86.28125 118.742188 35.800781-20.683594 1.261719 2.171875 34.421875-19.890625-2.523437-1.414063-2.519532-1.476562-1.261718-.722657-82.539063 47.65625v1.480469l16.109375-9.3125zm0 0"/><path d="m86.28125 128.917969 44.875-25.90625 1.265625 2.171875 34.167969-19.726563-2.527344-1.464843-2.515625-1.449219-1.261719-.722657-91.363281 52.761719v1.445313l16.109375-9.3125zm0 0"/><path d="m86.28125 139.085938 53.699219-30.992188 1.261719 2.203125 34.167968-19.746094-2.523437-1.457031-2.519531-1.464844-1.261719-.722656-100.183594 57.851562v1.449219l16.109375-9.292969zm0 0"/><path d="m179.191406 92.742188-1.265625-.746094-109.003906 62.960937v1.445313l16.109375-9.292969 1.25 2.171875 53.699219-30.988281 1.261719 2.167969 39.832031-22.984376v-3.636718zm0 0"/><path d="m75.832031 162.585938 9.035157-5.207032 1.253906 2.171875 53.605468-30.9375 1.261719 2.1875 40.089844-23.144531v-7.285156l-106.480469 61.492187zm0 0"/><path d="m139.726562 138.8125 1.261719 2.1875 40.085938-23.144531v-7.285157l-97.65625 56.378907 1.253906.734375 9.167969-5.300782 1.265625 2.191407"/><path d="m93.496094 172.789062 9.167968-5.316406 1.261719 2.191406 35.800781-20.675781 1.261719 2.191407 40.085938-23.144532v-7.285156l-88.867188 51.292969zm0 0"/><path d="m102.316406 177.878906 9.171875-5.296875 1.261719 2.167969 26.976562-15.566406 1.265626 2.171875 40.085937-23.15625v-7.253907l-80.023437 46.210938zm0 0"/><path d="m109.875 182.238281 1.265625.722657 9.199219-5.296876 1.230468 2.191407 18.15625-10.503907 1.261719 2.199219 40.089844-23.15625v-7.273437zm0 0"/><path d="m119.960938 188.074219 9.171874-5.328125 1.261719 2.203125 9.332031-5.421875 1.265626 2.199218 40.085937-23.132812v-7.273438l-62.378906 36.035157zm0 0"/><path d="m140.121094 70.179688-2.515625-1.449219-2.527344-1.445313-1.25-.753906-64.90625 37.480469v1.445312l16.109375-9.277343 1.25 2.171874 18.164062-10.484374 1.285157 2.199218zm0 0"/></g></svg>

<svg xmlns="http://www.w3.org/2000/svg" xmlns:xlink="http://www.w3.org/1999/xlink" width="250px" height="250px" viewBox="0 0 250 250" version="1.1">
<defs>
<linearGradient id="linear0" gradientUnits="userSpaceOnUse" x1="0.843" y1="0.135" x2="0.206" y2="0.886" gradientTransform="matrix(250,0,0,250,0,0)">
<stop offset="0" style="stop-color:rgb(71.372551%,31.37255%,61.960787%);stop-opacity:1;"/>
<stop offset="1" style="stop-color:rgb(18.039216%,72.941178%,77.64706%);stop-opacity:1;"/>
</linearGradient>
</defs>
<g id="surface1">
<path style=" stroke:none;fill-rule:nonzero;fill:rgb(100%,100%,100%);fill-opacity:1;" d="M 250 125 C 250 194.035156 194.035156 250 125 250 C 55.964844 250 0 194.035156 0 125 C 0 55.964844 55.964844 0 125 0 C 194.035156 0 250 55.964844 250 125 Z M 250 125 "/>
<path style=" stroke:none;fill-rule:nonzero;fill:url(#linear0);" d="M 125 250 C 116.539062 250.003906 108.097656 249.152344 99.804688 247.460938 C 83.816406 244.1875 68.628906 237.792969 55.105469 228.652344 C 35.011719 215.085938 19.277344 195.980469 9.820312 173.65625 C 6.625 166.09375 4.1875 158.238281 2.539062 150.195312 C -0.847656 133.570312 -0.847656 116.433594 2.539062 99.8125 C 5.8125 83.824219 12.203125 68.632812 21.347656 55.113281 C 34.914062 35.015625 54.019531 19.285156 76.34375 9.824219 C 83.90625 6.625 91.761719 4.1875 99.804688 2.539062 C 116.429688 -0.847656 133.566406 -0.847656 150.1875 2.539062 C 166.175781 5.8125 181.367188 12.203125 194.886719 21.347656 C 214.984375 34.914062 230.714844 54.019531 240.175781 76.34375 C 243.371094 83.90625 245.8125 91.761719 247.460938 99.804688 C 250.847656 116.429688 250.847656 133.566406 247.460938 150.1875 C 244.1875 166.179688 237.796875 181.367188 228.652344 194.886719 C 215.085938 214.980469 195.980469 230.714844 173.65625 240.171875 C 166.09375 243.371094 158.238281 245.8125 150.195312 247.460938 C 141.902344 249.152344 133.460938 250.003906 125 250 Z M 125 13.390625 C 117.445312 13.390625 109.910156 14.148438 102.507812 15.660156 C 88.230469 18.582031 74.667969 24.289062 62.597656 32.453125 C 44.65625 44.566406 30.613281 61.625 22.167969 81.558594 C 19.3125 88.308594 17.136719 95.328125 15.664062 102.507812 C 12.640625 117.347656 12.640625 132.648438 15.664062 147.492188 C 18.589844 161.769531 24.296875 175.328125 32.460938 187.398438 C 44.574219 205.34375 61.632812 219.390625 81.566406 227.835938 C 88.316406 230.691406 95.335938 232.867188 102.515625 234.339844 C 117.359375 237.363281 132.660156 237.363281 147.5 234.339844 C 161.777344 231.414062 175.339844 225.707031 187.410156 217.542969 C 205.347656 205.429688 219.386719 188.371094 227.832031 168.441406 C 230.6875 161.691406 232.863281 154.671875 234.335938 147.492188 C 237.359375 132.648438 237.359375 117.347656 234.335938 102.507812 C 231.410156 88.230469 225.703125 74.671875 217.539062 62.601562 C 205.425781 44.660156 188.371094 30.613281 168.441406 22.167969 C 161.691406 19.3125 154.671875 17.136719 147.492188 15.664062 C 140.089844 14.152344 132.554688 13.390625 125 13.390625 Z M 125 13.390625 "/>
<path style=" stroke:none;fill-rule:nonzero;fill:rgb(5.490196%,19.215687%,34.509805%);fill-opacity:1;" d="M 220.703125 125 C 220.703125 177.855469 177.855469 220.703125 125 220.703125 C 72.144531 220.703125 29.296875 177.855469 29.296875 125 C 29.296875 72.144531 72.144531 29.296875 125 29.296875 C 177.855469 29.296875 220.703125 72.144531 220.703125 125 Z M 220.703125 125 "/>
<path style=" stroke:none;fill-rule:nonzero;fill:rgb(100%,100%,100%);fill-opacity:1;" d="M 86.28125 88.148438 L 95.625 82.777344 L 96.878906 84.945312 L 131.300781 65.082031 L 128.785156 63.636719 L 126.257812 62.171875 L 125.003906 61.445312 L 68.921875 93.84375 L 68.921875 95.289062 L 85.03125 85.976562 Z M 86.28125 88.148438 "/>
<path style=" stroke:none;fill-rule:nonzero;fill:rgb(100%,100%,100%);fill-opacity:1;" d="M 86.28125 108.542969 L 113.257812 92.957031 L 114.523438 95.144531 L 148.945312 75.28125 L 146.429688 73.816406 L 143.902344 72.371094 L 142.636719 71.644531 L 68.921875 114.207031 L 68.921875 115.652344 L 85.03125 106.339844 Z M 86.28125 108.542969 "/>
<path style=" stroke:none;fill-rule:nonzero;fill:rgb(100%,100%,100%);fill-opacity:1;" d="M 86.28125 118.742188 L 122.082031 98.058594 L 123.34375 100.230469 L 157.765625 80.339844 L 155.242188 78.925781 L 152.722656 77.449219 L 151.460938 76.726562 L 68.921875 124.382812 L 68.921875 125.863281 L 85.03125 116.550781 Z M 86.28125 118.742188 "/>
<path style=" stroke:none;fill-rule:nonzero;fill:rgb(100%,100%,100%);fill-opacity:1;" d="M 86.28125 128.917969 L 131.15625 103.011719 L 132.421875 105.183594 L 166.589844 85.457031 L 164.0625 83.992188 L 161.546875 82.542969 L 160.285156 81.820312 L 68.921875 134.582031 L 68.921875 136.027344 L 85.03125 126.714844 Z M 86.28125 128.917969 "/>
<path style=" stroke:none;fill-rule:nonzero;fill:rgb(100%,100%,100%);fill-opacity:1;" d="M 86.28125 139.085938 L 139.980469 108.09375 L 141.242188 110.296875 L 175.410156 90.550781 L 172.886719 89.09375 L 170.367188 87.628906 L 169.105469 86.90625 L 68.921875 144.757812 L 68.921875 146.207031 L 85.03125 136.914062 Z M 86.28125 139.085938 "/>
<path style=" stroke:none;fill-rule:nonzero;fill:rgb(100%,100%,100%);fill-opacity:1;" d="M 179.191406 92.742188 L 177.925781 91.996094 L 68.921875 154.957031 L 68.921875 156.402344 L 85.03125 147.109375 L 86.28125 149.28125 L 139.980469 118.292969 L 141.242188 120.460938 L 181.074219 97.476562 L 181.074219 93.839844 Z M 179.191406 92.742188 "/>
<path style=" stroke:none;fill-rule:nonzero;fill:rgb(100%,100%,100%);fill-opacity:1;" d="M 75.832031 162.585938 L 84.867188 157.378906 L 86.121094 159.550781 L 139.726562 128.613281 L 140.988281 130.800781 L 181.078125 107.65625 L 181.078125 100.371094 L 74.597656 161.863281 Z M 75.832031 162.585938 "/>
<path style=" stroke:none;fill-rule:nonzero;fill:rgb(100%,100%,100%);fill-opacity:1;" d="M 139.726562 138.8125 L 140.988281 141 L 181.074219 117.855469 L 181.074219 110.570312 L 83.417969 166.949219 L 84.671875 167.683594 L 93.839844 162.382812 L 95.105469 164.574219 "/>
<path style=" stroke:none;fill-rule:nonzero;fill:rgb(100%,100%,100%);fill-opacity:1;" d="M 93.496094 172.789062 L 102.664062 167.472656 L 103.925781 169.664062 L 139.726562 148.988281 L 140.988281 151.179688 L 181.074219 128.035156 L 181.074219 120.75 L 92.207031 172.042969 Z M 93.496094 172.789062 "/>
<path style=" stroke:none;fill-rule:nonzero;fill:rgb(100%,100%,100%);fill-opacity:1;" d="M 102.316406 177.878906 L 111.488281 172.582031 L 112.75 174.75 L 139.726562 159.183594 L 140.992188 161.355469 L 181.078125 138.199219 L 181.078125 130.945312 L 101.054688 177.15625 Z M 102.316406 177.878906 "/>
<path style=" stroke:none;fill-rule:nonzero;fill:rgb(100%,100%,100%);fill-opacity:1;" d="M 109.875 182.238281 L 111.140625 182.960938 L 120.339844 177.664062 L 121.570312 179.855469 L 139.726562 169.351562 L 140.988281 171.550781 L 181.078125 148.394531 L 181.078125 141.121094 Z M 109.875 182.238281 "/>
<path style=" stroke:none;fill-rule:nonzero;fill:rgb(100%,100%,100%);fill-opacity:1;" d="M 119.960938 188.074219 L 129.132812 182.746094 L 130.394531 184.949219 L 139.726562 179.527344 L 140.992188 181.726562 L 181.078125 158.59375 L 181.078125 151.320312 L 118.699219 187.355469 Z M 119.960938 188.074219 "/>
<path style=" stroke:none;fill-rule:nonzero;fill:rgb(100%,100%,100%);fill-opacity:1;" d="M 140.121094 70.179688 L 137.605469 68.730469 L 135.078125 67.285156 L 133.828125 66.53125 L 68.921875 104.011719 L 68.921875 105.457031 L 85.03125 96.179688 L 86.28125 98.351562 L 104.445312 87.867188 L 105.730469 90.066406 Z M 140.121094 70.179688 "/>
</g>
</svg>
